public/img/home/solutions/icon-solutions-03.svg

<svg fill="none" height="87" viewBox="0 0 109 87" width="109" xmlns="http://www.w3.org/2000/svg"><g fill="#fff"><path d="m98.6023 18.2377c0-4.9013-1.1101-8.0925-3.4936-10.04428-2.1627-1.77157-5.224-2.51215-9.3133-3.36547l-.291-.06065-.1735-.24344c-.6997-.98231-1.7337-1.52386-2.9115-1.52386-1.8462 0-3.3481 1.46065-3.3481 3.25614 0 1.79548 1.5019 3.25357 3.3481 3.25357.5923 0 1.1254-.15204 1.584-.45101l.2639-.17169.3072.06578c7.6921 1.64681 9.5197 2.03811 9.5197 9.28491 0 5.8401-2.8701 13.4705-7.1421 18.9876l-.1921.2477-.3088.041c-.6989.0931-1.314.3989-1.8285.9106l-.0262.0282c-1.8445 2.062-5.6148 5.512-10.1729 5.512-2.1034 0-4.2272-.7064-6.3484-2.1064 2.012-3.7917 3.1822-7.9413 3.3625-11.7544.2453-5.2105-1.507-9.5028-5.2104-12.7572-2.8828-2.5326-6.3603-3.8711-10.057-3.8711-.1176 0-.6143-.0026-.9384-.0026 1.0425-2.8068 3.6155-3.3586 8.9672-4.50409l.2936-.06235.2572.15631c.4832.29299 1.0636.44845 1.6779.44845 1.8454 0 3.3472-1.4598 3.3472-3.25357 0-1.79378-1.5001-3.25785-3.3455-3.25785-1.2134 0-2.2177.48347-2.8294 1.36071l-.1684.24173-.3038.06919c-3.8481.86956-7.1717 1.62038-9.446 3.45943-1.166.94302-2.0121 2.13714-2.5883 3.65164-.3038.7978-.5331 1.6861-.6921 2.6744-.6922.3016-1.9681 1.0063-2.6196 1.3881-2.3082 1.3513-4.4515 3.1109-6.5532 5.3805l-.495.5347-.4941-.5347c-2.1559-2.3328-4.3372-4.1146-6.6666-5.448-2.6314-1.5059-5.515-2.302-8.3402-2.302-3.9158 0-7.632 1.5281-10.4656 4.3016-4.0521 3.9668-5.5311 9.1338-4.3973 15.3608.8343 4.5843 2.8624 8.974 6.1978 13.42 4.1756 5.565 9.9724 11.1821 16.4773 15.8553v.3331c0 11.1684 9.705 20.2544 21.6336 20.2544s21.7579-9.086 21.7579-20.2544v-12.8759l.6507-.0965c4.4768-.6654 8.7954-3.1724 12.4887-7.2503.5263-.6398.7454-1.3001.709-2.1397l-.0126-.2896.1802-.2255c4.9515-6.2073 8.1506-14.6979 8.1506-21.6296zm-42.4058-3.9796c3.4623 0 6.7487 1.2796 9.5036 3.7003 3.508 3.0827 5.169 7.1555 4.9346 12.1055-.1743 3.696-1.2971 7.7064-3.2186 11.3358-1.0653-.7756-2.1297-1.7272-3.1899-2.8513-.5593-.5595-1.1981-.9148-1.8479-1.0258l-.2903-.0496-.1819-.234c-4.3482-5.6103-7.2698-13.2458-7.2698-19.0004 0-1.6477.1057-2.941.3579-3.9762.3376-.0052 1.0238-.0026 1.2015-.0026zm-38.9874 31.8097c-3.2584-4.3418-5.2367-8.6196-6.0481-13.0767-1.0974-6.0271.2657-10.8122 4.1655-14.6295 2.6762-2.6198 6.1986-4.0625 9.9173-4.0625 2.6898 0 5.4321.756 7.9315 2.1867 2.3243 1.33 4.509 3.1357 6.6759 5.5137l.0245.0257c.2251.228.5356.3596.8546.3596.3402 0 .6685-.1452.8994-.3998 2.1069-2.308 4.2509-4.0864 6.5549-5.436.4891-.2861 1.4689-.8379 2.0882-1.1437-.0956.8704-.1429 1.8117-.1429 2.8333 0 6.9411 3.2431 15.4777 8.2631 21.7474l.1803.2247-.0119.2887c-.0321.8132.2226 1.5349.7167 2.0321l.0169.0179c1.4782 1.5854 3.0469 2.9367 4.6765 4.036-3.9691 5.1644-9.3555 10.2032-16.028 14.955-1.8979 1.3513-3.904 2.6241-5.845 3.8549l-.9578.6099-.0457.0205c-.1024.0453-.2115.0666-.2843.0752l-.2318.0299-.2006-.1205c-.7513-.4518-1.8733-1.1582-2.6128-1.6255-.0584-.5389-.088-1.0856-.088-1.6383v-11.3264l.5974-.1333c5.427-1.2121 9.2176-5.7008 9.2176-10.9155 0-6.2441-5.4693-11.3248-12.1926-11.3248-6.7232 0-12.0605 5.0798-12.0605 11.3248 0 5.1968 3.7872 9.6847 9.21 10.9121l.5948.135v9.9956c-6.2241-4.5306-11.8017-9.9709-15.8351-15.3462zm54.0915 3.6439.6253.1205-.1236 12.9135c0 8.8587-7.6819 16.0663-17.1254 16.0663-8.4037 0-15.4019-5.7931-16.7599-13.3757.6413.4015 1.5687.9832 2.1677 1.3428.1532.0923.3605.1409.5991.1409.3232 0 .6684-.0922.9011-.24l.924-.5868c1.9528-1.2377 3.9716-2.5173 5.8974-3.8891 6.7698-4.8218 12.223-9.9307 16.2429-15.1771 2.1441 1.3411 4.3838 2.2499 6.6497 2.6847zm18.3853-9.911-.0888.1084.0186.1393c.1167.8584-.0347 1.4683-.5069 2.0389l-.011.0137-.0118.0128c-3.7525 4.1462-8.1447 6.6028-12.7019 7.1042l-.0415.0043h-.5432v13.5242c0 10.8148-9.4757 19.6129-21.1225 19.6129s-20.9981-8.7981-20.9981-19.6129v-11.8876l-.2691-.0427c-5.5252-.8696-9.5358-5.2618-9.5358-10.4441 0-5.8904 5.1258-10.6832 11.4252-10.6832 6.2993 0 11.5571 4.7928 11.5571 10.6832 0 5.2011-4.014 9.5942-9.545 10.4441l-.27.0418v11.8894c0 9.2123 7.9113 16.7078 17.6348 16.7078 9.7236 0 17.7609-7.4904 17.7609-16.7044l.1286-13.4867-.2775-.0375c-4.4184-.6031-8.7573-3.0691-12.5479-7.1316-.6338-.6475-.5678-1.5546-.5094-1.9142l.0228-.1444-.0922-.1127c-5.1012-6.2057-8.3977-14.7176-8.3977-21.6834 0-4.7646 1.0043-7.7184 3.255-9.57623 1.9114-1.57767 4.6376-2.30885 8.0534-3.09213l1.4291-.32459.3714-.08371.0525-.10506c.4577-.91227 1.3461-1.41453 2.5028-1.41453 1.4951 0 2.7118 1.17279 2.7118 2.6155s-1.2167 2.61209-2.7118 2.61209c-.6845 0-1.3081-.23319-1.7126-.63978l-.5423.08883-.6033.12984c-3.717.7978-6.0777 1.37352-7.5186 2.63347-1.4579 1.2753-2.0518 3.3484-2.0518 7.1571 0 6.0664 3.0942 14.0112 7.6996 19.7692l.0948.1187h.1514c.6169 0 1.2616.3058 1.8167.8628l.0152.0153c3.5021 3.7166 7.0837 5.6017 10.6467 5.6017 4.7967 0 8.7184-3.5747 10.629-5.7059l.0169-.0188.0177-.0179c.5001-.4895 1.1101-.7372 1.8133-.7372h.1514l.0948-.1187c4.5343-5.6615 7.5812-13.6062 7.5812-19.7692 0-3.8796-.6176-5.9809-2.1314-7.2511-1.5534-1.30433-4.1967-1.8698-7.8545-2.65308l-.2284-.04869-.5026-.05467c-.4265.42966-.9477.63893-1.5941.63893-1.4959 0-2.7127-1.17193-2.7127-2.61208s1.2168-2.6155 2.7127-2.6155c.929 0 1.7269.39292 2.3057 1.13606l.1633.20927.2538.36047c4.0774.84734 7.2978 1.51702 9.4765 3.25357 2.315 1.84502 3.3473 4.81672 3.3473 9.63682 0 6.8497-3.3278 15.5154-8.281 21.563z"/><path d="m42.3758 40.3713c0-3.8703-3.2271-7.0188-7.1928-7.0188-3.9658 0-7.1937 3.0828-7.1937 7.0188 0 3.9361 3.1594 7.1418 7.1937 7.1418s7.1928-3.2031 7.1928-7.1418zm-7.1928 6.2877c-3.5597 0-6.3476-2.7616-6.3476-6.2877 0-3.526 2.7879-6.1646 6.3476-6.1646 3.5596 0 6.3467 2.7659 6.3467 6.1646 0 3.3988-2.8472 6.2877-6.3467 6.2877z"/></g></svg>

<svg width="109" height="87" viewBox="0 0 109 87" fill="none" xmlns="http://www.w3.org/2000/svg">
<path d="M98.6023 18.2377C98.6023 13.3364 97.4922 10.1452 95.1087 8.19342C92.946 6.42185 89.8847 5.68127 85.7954 4.82795L85.5044 4.7673L85.3309 4.52386C84.6312 3.54155 83.5972 3 82.4194 3C80.5732 3 79.0713 4.46065 79.0713 6.25614C79.0713 8.05162 80.5732 9.50971 82.4194 9.50971C83.0117 9.50971 83.5448 9.35767 84.0034 9.0587L84.2673 8.88701L84.5745 8.95279C92.2666 10.5996 94.0942 10.9909 94.0942 18.2377C94.0942 24.0778 91.2241 31.7082 86.9521 37.2253L86.76 37.473L86.4512 37.514C85.7523 37.6071 85.1372 37.9129 84.6227 38.4246L84.5965 38.4528C82.752 40.5148 78.9817 43.9648 74.4236 43.9648C72.3202 43.9648 70.1964 43.2584 68.0752 41.8584C70.0872 38.0667 71.2574 33.9171 71.4377 30.104C71.683 24.8935 69.9307 20.6012 66.2273 17.3468C63.3445 14.8142 59.867 13.4757 56.1703 13.4757C56.0527 13.4757 55.556 13.4731 55.2319 13.4731C56.2744 10.6663 58.8474 10.1145 64.1991 8.96901L64.4927 8.90666L64.7499 9.06297C65.2331 9.35596 65.8135 9.51142 66.4278 9.51142C68.2732 9.51142 69.775 8.05162 69.775 6.25785C69.775 4.46407 68.2749 3 66.4295 3C65.2161 3 64.2118 3.48347 63.6001 4.36071L63.4317 4.60244L63.1279 4.67163C59.2798 5.54119 55.9562 6.29201 53.6819 8.13106C52.5159 9.07408 51.6698 10.2682 51.0936 11.7827C50.7898 12.5805 50.5605 13.4688 50.4015 14.4571C49.7093 14.7587 48.4334 15.4634 47.7819 15.8452C45.4737 17.1965 43.3304 18.9561 41.2287 21.2257L40.7337 21.7604L40.2396 21.2257C38.0837 18.8929 35.9024 17.1111 33.573 15.7777C30.9416 14.2718 28.058 13.4757 25.2328 13.4757C21.317 13.4757 17.6008 15.0038 14.7672 17.7773C10.7151 21.7441 9.2361 26.9111 10.3699 33.1381C11.2042 37.7224 13.2323 42.1121 16.5677 46.5581C20.7433 52.1231 26.5401 57.7402 33.045 62.4134V62.7465C33.045 73.9149 42.75 83.0009 54.6786 83.0009C66.6072 83.0009 76.4365 73.9149 76.4365 62.7465V49.8706L77.0872 49.7741C81.564 49.1087 85.8826 46.6017 89.5759 42.5238C90.1022 41.884 90.3213 41.2237 90.2849 40.3841L90.2723 40.0945L90.4525 39.869C95.404 33.6617 98.6031 25.1711 98.6031 18.2394L98.6023 18.2377ZM56.1965 14.2581C59.6588 14.2581 62.9452 15.5377 65.7001 17.9584C69.2081 21.0411 70.8691 25.1139 70.6347 30.0639C70.4604 33.7599 69.3376 37.7703 67.4161 41.3997C66.3508 40.6241 65.2864 39.6725 64.2262 38.5484C63.6669 37.9889 63.0281 37.6336 62.3783 37.5226L62.088 37.473L61.9061 37.239C57.5579 31.6287 54.6363 23.9932 54.6363 18.2386C54.6363 16.5909 54.742 15.2976 54.9942 14.2624C55.3318 14.2572 56.018 14.2598 56.1957 14.2598L56.1965 14.2581ZM17.2091 46.0678C13.9507 41.726 11.9724 37.4482 11.161 32.9911C10.0636 26.964 11.4267 22.1789 15.3265 18.3616C18.0027 15.7418 21.5251 14.2991 25.2438 14.2991C27.9336 14.2991 30.6759 15.0551 33.1753 16.4858C35.4996 17.8158 37.6843 19.6215 39.8512 21.9995L39.8757 22.0252C40.1008 22.2532 40.4113 22.3848 40.7303 22.3848C41.0705 22.3848 41.3988 22.2396 41.6297 21.985C43.7366 19.677 45.8806 17.8986 48.1846 16.549C48.6737 16.2629 49.6535 15.7111 50.2728 15.4053C50.1772 16.2757 50.1299 17.217 50.1299 18.2386C50.1299 25.1797 53.373 33.7163 58.393 39.986L58.5733 40.2107L58.5614 40.4994C58.5293 41.3126 58.784 42.0343 59.2781 42.5315L59.295 42.5494C60.7732 44.1348 62.3419 45.4861 63.9715 46.5854C60.0024 51.7498 54.616 56.7886 47.9435 61.5404C46.0456 62.8917 44.0395 64.1645 42.0985 65.3953L41.1407 66.0052L41.095 66.0257C40.9926 66.071 40.8835 66.0923 40.8107 66.1009L40.5789 66.1308L40.3783 66.0103C39.627 65.5585 38.505 64.8521 37.7655 64.3848C37.7071 63.8459 37.6775 63.2992 37.6775 62.7465V51.4201L38.2749 51.2868C43.7019 50.0747 47.4925 45.586 47.4925 40.3713C47.4925 34.1272 42.0232 29.0465 35.2999 29.0465C28.5767 29.0465 23.2394 34.1263 23.2394 40.3713C23.2394 45.5681 27.0266 50.056 32.4494 51.2834L33.0442 51.4184V61.414C26.8201 56.8834 21.2425 51.4431 17.2091 46.0678ZM71.3006 49.7117L71.9259 49.8322L71.8023 62.7457C71.8023 71.6044 64.1204 78.812 54.6769 78.812C46.2732 78.812 39.275 73.0189 37.917 65.4363C38.5583 65.8378 39.4857 66.4195 40.0847 66.7791C40.2379 66.8714 40.4452 66.92 40.6838 66.92C41.007 66.92 41.3522 66.8278 41.5849 66.68L42.5089 66.0932C44.4617 64.8555 46.4805 63.5759 48.4063 62.2041C55.1761 57.3823 60.6293 52.2734 64.6492 47.027C66.7933 48.3681 69.033 49.2769 71.2989 49.7117H71.3006ZM89.6859 39.8007L89.5971 39.9091L89.6157 40.0484C89.7324 40.9068 89.581 41.5167 89.1088 42.0873L89.0978 42.101L89.086 42.1138C85.3335 46.26 80.9413 48.7166 76.3841 49.218L76.3426 49.2223H75.7994V62.7465C75.7994 73.5613 66.3237 82.3594 54.6769 82.3594C43.0301 82.3594 33.6788 73.5613 33.6788 62.7465V50.8589L33.4097 50.8162C27.8845 49.9466 23.8739 45.5544 23.8739 40.3721C23.8739 34.4817 28.9997 29.6889 35.2991 29.6889C41.5984 29.6889 46.8562 34.4817 46.8562 40.3721C46.8562 45.5732 42.8422 49.9663 37.3112 50.8162L37.0412 50.858V62.7474C37.0412 71.9597 44.9525 79.4552 54.676 79.4552C64.3996 79.4552 72.4369 71.9648 72.4369 62.7508L72.5655 49.2641L72.288 49.2266C67.8696 48.6235 63.5307 46.1575 59.7401 42.095C59.1063 41.4475 59.1723 40.5404 59.2307 40.1808L59.2535 40.0364L59.1613 39.9237C54.0601 33.718 50.7636 25.2061 50.7636 18.2403C50.7636 13.4757 51.7679 10.5219 54.0186 8.66407C55.93 7.0864 58.6562 6.35522 62.072 5.57194L63.5011 5.24735L63.8725 5.16364L63.925 5.05858C64.3827 4.14631 65.2711 3.64405 66.4278 3.64405C67.9229 3.64405 69.1396 4.81684 69.1396 6.25955C69.1396 7.70226 67.9229 8.87164 66.4278 8.87164C65.7433 8.87164 65.1197 8.63845 64.7152 8.23186L64.1729 8.32069L63.5696 8.45053C59.8526 9.24833 57.4919 9.82405 56.051 11.084C54.5931 12.3593 53.9992 14.4324 53.9992 18.2411C53.9992 24.3075 57.0934 32.2523 61.6988 38.0103L61.7936 38.129H61.945C62.5619 38.129 63.2066 38.4348 63.7617 38.9918L63.7769 39.0071C67.279 42.7237 70.8606 44.6088 74.4236 44.6088C79.2203 44.6088 83.142 41.0341 85.0526 38.9029L85.0695 38.8841L85.0872 38.8662C85.5873 38.3767 86.1973 38.129 86.9005 38.129H87.0519L87.1467 38.0103C91.681 32.3488 94.7279 24.4041 94.7279 18.2411C94.7279 14.3615 94.1103 12.2602 92.5965 10.99C91.0431 9.68567 88.3998 9.1202 84.742 8.33692L84.5136 8.28823L84.011 8.23356C83.5845 8.66322 83.0633 8.87249 82.4169 8.87249C80.921 8.87249 79.7042 7.70056 79.7042 6.26041C79.7042 4.82026 80.921 3.64491 82.4169 3.64491C83.3459 3.64491 84.1438 4.03783 84.7226 4.78097L84.8859 4.99024L85.1397 5.35071C89.2171 6.19805 92.4375 6.86773 94.6162 8.60428C96.9312 10.4493 97.9635 13.421 97.9635 18.2411C97.9635 25.0908 94.6357 33.7565 89.6825 39.8041L89.6859 39.8007Z" fill="white"/>
<path d="M42.3758 40.3713C42.3758 36.501 39.1487 33.3525 35.183 33.3525C31.2172 33.3525 27.9893 36.4353 27.9893 40.3713C27.9893 44.3074 31.1487 47.5131 35.183 47.5131C39.2173 47.5131 42.3758 44.31 42.3758 40.3713ZM35.183 46.659C31.6233 46.659 28.8354 43.8974 28.8354 40.3713C28.8354 36.8453 31.6233 34.2067 35.183 34.2067C38.7426 34.2067 41.5297 36.9726 41.5297 40.3713C41.5297 43.7701 38.6825 46.659 35.183 46.659Z" fill="white"/>
</svg>
